brandFactory_export/2.Regular/Fireware_2Regular.svg

<?xml version="1.0" encoding="UTF-8"?>
<svg width="24px" height="24px" viewBox="0 0 24 24" version="1.1" xmlns="http://www.w3.org/2000/svg" xmlns:xlink="http://www.w3.org/1999/xlink">
    <title>2.Regular/Fireware_2Regular</title>
    <g id="Symbols" stroke="none" stroke-width="1" fill="none" fill-rule="evenodd">
        <g id="2.Regular/Fireware_2Regular" fill="#5CB615" fill-rule="nonzero">
            <path d="M21.9932773,21.8386555 L18.1411765,21.8386555 L18.1411765,16.0134454 L22.194958,16.0336134 L22.194958,21.4084034 C22.1983193,21.6436975 22.0436975,21.8218487 21.9932773,21.8386555 L21.9932773,21.8386555 Z M2.37983193,20.3193277 C0.322689076,17.697479 2.18151261,13.4285714 4.36302521,11.6403361 C5.0487395,11.0789916 5.81176471,10.6184874 6.59831933,10.2890756 C6.42352941,11.8151261 6.81008403,13.892437 8.94453782,15.4487395 C9.26722689,15.6773109 9.56302521,15.9361345 9.82184874,16.2117647 C10.4403361,16.8705882 10.7596639,17.7176471 10.7294118,18.5915966 C10.6957983,19.4689076 10.312605,20.2857143 9.65042017,20.8941176 C9.46890756,21.0621849 9.28403361,21.2 9.09915966,21.3210084 C9.56638655,19.6436975 8.69243697,17.6302521 7.60672269,16.6722689 C7.02521008,16.1613445 6.32605042,15.7815126 5.64369748,15.6067227 C5.37478992,15.5361345 5.09915966,15.6268908 4.91764706,15.8352941 C4.73613445,16.0403361 4.68571429,16.3361345 4.78655462,16.5915966 C4.8302521,16.7058824 5.18655462,17.7142857 4.2487395,18.4470588 C4.05042017,18.5983193 3.86554622,18.7731092 3.70420168,18.9579832 C3.20336134,19.5327731 2.98823529,20.2621849 3.04201681,20.9714286 C2.79663866,20.7764706 2.57142857,20.5647059 2.37983193,20.3193277 L2.37983193,20.3193277 Z M3.98655462,1.46890756 L7.54285714,1.46890756 L7.54285714,6.64537815 L3.78487395,6.63529412 L3.78487395,1.89915966 C3.78151261,1.68739496 3.94621849,1.48907563 3.98655462,1.46890756 L3.98655462,1.46890756 Z M22.1983193,1.90252101 L22.1983193,6.6789916 L18.1445378,6.66890756 L18.1445378,1.46554622 L21.9663866,1.46554622 C22.0336134,1.49243697 22.1983193,1.68739496 22.1983193,1.90252101 L22.1983193,1.90252101 Z M13.5226891,14.5176471 L13.5226891,8.20840336 C13.5226891,8.17815126 13.5092437,8.15798319 13.5058824,8.12773109 L22.1983193,8.14789916 L22.1983193,14.5579832 L13.5226891,14.5176471 L13.5226891,14.5176471 Z M16.6823529,16.0033613 L16.6823529,21.8386555 L10.7596639,21.8386555 C11.6268908,20.9781513 12.1411765,19.8588235 12.1848739,18.6487395 C12.2184874,17.7008403 11.9697479,16.7798319 11.4756303,15.9798319 L16.6823529,16.0033613 Z M9.00168067,6.6487395 L9.00168067,1.46890756 L16.6823529,1.46890756 L16.6823529,6.66890756 L9.00168067,6.6487395 L9.00168067,6.6487395 Z M8.19159664,8.7092437 C8.01344538,8.49411765 7.73109244,8.4 7.46218487,8.46386555 C6.19831933,8.76638655 4.91092437,9.40168067 3.78487395,10.2521008 L3.78487395,8.10756303 L12.0806723,8.12773109 C12.0773109,8.15798319 12.0638655,8.18151261 12.0638655,8.21176471 L12.0638655,14.5109244 L10.4134454,14.5042017 L10.410084,14.5042017 C10.3260504,14.5042017 10.2487395,14.5243697 10.1747899,14.5512605 C10.0504202,14.4504202 9.92941176,14.3462185 9.79831933,14.2554622 C7.12941176,12.3092437 8.25210084,9.58991597 8.30252101,9.4789916 C8.40672269,9.22016807 8.36638655,8.92436975 8.19159664,8.7092437 Z M6.13109244,22.1411765 C5.95630252,22.1478992 5.77815126,22.1344538 5.59663866,22.0907563 C5.59327731,22.0907563 5.2,22.0168067 4.85042017,21.6672269 C4.38655462,21.2067227 4.35966387,20.4302521 4.79327731,19.9327731 C4.88739496,19.8252101 4.99831933,19.7210084 5.13277311,19.6168067 C5.92605042,18.9983193 6.24201681,18.2252101 6.31932773,17.5294118 C6.4302521,17.6067227 6.53781513,17.6941176 6.64201681,17.7815126 C7.49915966,18.5378151 8.22521008,20.4033613 7.46890756,21.4386555 C7.16302521,21.8588235 6.67563025,22.1109244 6.14453782,22.1411765 L6.13109244,22.1411765 L6.13109244,22.1411765 Z M21.9932773,0 L3.98319328,0 C3.11260504,0 2.31932773,0.907563025 2.31932773,1.90252101 L2.31932773,11.6336134 C0.221848739,14.1680672 -1.02521008,18.3495798 1.23361345,21.2302521 C2.34957983,22.6521008 4.11428571,23.4991597 5.92268908,23.6033613 C5.96302521,23.6033613 6.00672269,23.6168067 6.04705882,23.6168067 C6.06386555,23.6168067 6.07731092,23.6134454 6.09411765,23.6134454 C6.16134454,23.6134454 6.22857143,23.6235294 6.29243697,23.6235294 C6.75630252,23.6235294 7.22352941,23.5731092 7.67731092,23.4689076 C7.70420168,23.4655462 8.0302521,23.4117647 8.4907563,23.2537815 C8.57478992,23.287395 8.66218487,23.307563 8.75630252,23.307563 L21.9932773,23.307563 C22.8941176,23.307563 23.6571429,22.4369748 23.6571429,21.405042 L23.6571429,1.90252101 C23.6571429,0.907563025 22.8638655,0 21.9932773,0 Z" id="Fireware_2Regular"></path>
        </g>
    </g>
</svg>

<svg width="24" height="24" viewBox="0 0 24 24" xmlns="http://www.w3.org/2000/svg"><path d="M21.993 21.839h-3.852v-5.826l4.054.02v5.375c.003.236-.151.414-.202.43zM2.38 20.319c-2.057-2.622-.198-6.89 1.983-8.679a9.12 9.12 0 012.235-1.35c-.174 1.525.212 3.602 2.347 5.159.322.228.618.487.877.763.618.659.938 1.506.907 2.38a3.282 3.282 0 01-1.079 2.302 4.131 4.131 0 01-.55.427c.466-1.677-.408-3.69-1.493-4.649-.582-.51-1.28-.89-1.963-1.065a.715.715 0 00-.726.228.739.739 0 00-.131.757c.043.114.4 1.122-.538 1.855a3.74 3.74 0 00-.545.511 2.738 2.738 0 00-.662 2.013 3.922 3.922 0 01-.662-.652zM3.987 1.47h3.556v5.176l-3.758-.01V1.9a.61.61 0 01.202-.43zm18.211.434v4.776l-4.053-.01V1.466h3.821c.068.026.232.221.232.437zm-8.675 12.615v-6.31c0-.03-.014-.05-.017-.08l8.692.02v6.41l-8.675-.04zm3.16 1.485v5.836H10.76c.867-.86 1.381-1.98 1.425-3.19a4.741 4.741 0 00-.71-2.67l5.207.024zM9.001 6.65v-5.18h7.68v5.2l-7.68-.02zm-.81 2.06a.728.728 0 00-.73-.245c-1.264.302-2.551.938-3.677 1.788V8.108l8.296.02c-.004.03-.017.054-.017.084v6.299l-1.65-.007h-.004a.682.682 0 00-.235.047c-.125-.1-.246-.205-.377-.296C7.13 12.31 8.252 9.59 8.303 9.48a.767.767 0 00-.111-.77zm-2.06 13.432a1.947 1.947 0 01-.535-.05c-.004 0-.397-.074-.747-.424a1.286 1.286 0 01-.057-1.734c.094-.108.205-.212.34-.316.793-.619 1.109-1.392 1.186-2.088.111.078.219.165.323.253.857.756 1.583 2.621.827 3.657a1.75 1.75 0 01-1.324.702H6.13zM21.992 0H3.983C3.113 0 2.32.908 2.32 1.903v9.73C.222 14.169-1.025 18.35 1.234 21.23c1.116 1.422 2.88 2.27 4.689 2.373.04 0 .084.014.124.014.017 0 .03-.004.047-.004.067 0 .135.01.198.01.464 0 .932-.05 1.385-.154a5.1 5.1 0 00.814-.215.707.707 0 00.265.054h13.237c.901 0 1.664-.871 1.664-1.903V1.903C23.657.908 22.864 0 21.993 0z" fill="#5CB615" fill-rule="nonzero"/></svg>
